fs/color_20_filled.svg

<svg viewBox="0 0 20 20" fill="none" xmlns="http://www.w3.org/2000/svg" height="1em" width="1em">
  <path d="M5.77007 3.16636C8.1432 1.7124 10.9426 1.57663 13.6972 2.99169C17.6728 5.03394 19.1991 9.15377 17.8842 13.4272C17.4691 14.7761 16.6391 16.125 15.5126 17.0169C14.3731 17.9191 12.9093 18.3636 11.307 17.8158C10.2047 17.439 9.51764 16.8488 9.10362 16.1357C8.69971 15.4401 8.58436 14.6744 8.52974 14.0037C8.51437 13.8149 8.50252 13.6098 8.49142 13.4176C8.48379 13.2855 8.47651 13.1594 8.46868 13.0491C8.44767 12.7527 8.41955 12.5016 8.36788 12.2886C8.31662 12.0774 8.24792 11.9289 8.16212 11.8229C8.08161 11.7235 7.96661 11.637 7.77579 11.5787C7.2582 11.4205 6.90191 11.4534 6.62049 11.5426C6.37205 11.6214 6.17332 11.7421 5.93113 11.8892C5.86891 11.927 5.80382 11.9666 5.73429 12.0076C5.41804 12.1942 5.01375 12.404 4.49574 12.3784C3.98165 12.353 3.45058 12.1026 2.84039 11.6053C2.16983 11.0587 1.90566 10.2941 1.90238 9.49318C1.89915 8.70492 2.14542 7.85816 2.51605 7.05899C3.25331 5.46925 4.55909 3.9083 5.77007 3.16636ZM9.75003 6.75C10.3023 6.75 10.75 6.30228 10.75 5.75C10.75 5.19772 10.3023 4.75 9.75003 4.75C9.19775 4.75 8.75003 5.19772 8.75003 5.75C8.75003 6.30228 9.19775 6.75 9.75003 6.75ZM12.75 7.75C13.3023 7.75 13.75 7.30228 13.75 6.75C13.75 6.19772 13.3023 5.75 12.75 5.75C12.1977 5.75 11.75 6.19772 11.75 6.75C11.75 7.30228 12.1977 7.75 12.75 7.75ZM15.5 9C15.5 8.44771 15.0523 8 14.5 8C13.9477 8 13.5 8.44771 13.5 9C13.5 9.55229 13.9477 10 14.5 10C15.0523 10 15.5 9.55229 15.5 9ZM14.5 13C15.0523 13 15.5 12.5523 15.5 12C15.5 11.4477 15.0523 11 14.5 11C13.9477 11 13.5 11.4477 13.5 12C13.5 12.5523 13.9477 13 14.5 13ZM13.5 14C13.5 13.4477 13.0523 13 12.5 13C11.9477 13 11.5 13.4477 11.5 14C11.5 14.5523 11.9477 15 12.5 15C13.0523 15 13.5 14.5523 13.5 14Z" fill="#212121"/>
</svg>

<svg viewBox="0 0 20 20" fill="none" xmlns="http://www.w3.org/2000/svg" height="1em" width="1em">
  <path d="M5.77 3.166c2.373-1.454 5.173-1.59 7.927-.174 3.976 2.042 5.502 6.162 4.187 10.435-.415 1.35-1.245 2.698-2.371 3.59-1.14.902-2.604 1.347-4.206.799-1.102-.377-1.79-.967-2.203-1.68-.404-.696-.52-1.462-.574-2.132a25.653 25.653 0 0 1-.039-.586 19.7 19.7 0 0 0-.022-.369 4.724 4.724 0 0 0-.101-.76 1.163 1.163 0 0 0-.206-.466.751.751 0 0 0-.386-.244c-.518-.159-.874-.126-1.156-.036-.248.078-.447.2-.689.346-.062.038-.127.078-.197.119-.316.186-.72.396-1.238.37-.514-.025-1.045-.275-1.656-.773-.67-.546-.934-1.31-.938-2.112-.003-.788.243-1.635.614-2.434.737-1.59 2.043-3.15 3.254-3.893ZM9.75 6.75a1 1 0 1 0 0-2 1 1 0 0 0 0 2Zm3 1a1 1 0 1 0 0-2 1 1 0 0 0 0 2ZM15.5 9a1 1 0 1 0-2 0 1 1 0 0 0 2 0Zm-1 4a1 1 0 1 0 0-2 1 1 0 0 0 0 2Zm-1 1a1 1 0 1 0-2 0 1 1 0 0 0 2 0Z" fill="#212121"/>
</svg>
